X:1
T:Last Gold Dollar [2]
N::From the playing of Van Kidwell (originally from Madison County, Ky.)
M:C|
L:1/8
R:Country Rag
D:Rounder CD 0377, Van Kidwell - "Traditional Fiddle Music of Kentucky,
D:vol. 2: Along the Kentucky River" (1997)
D:FIeld Recorders Collective FRC-412, "Fiddlin' Van Kidwell with the Hot
D:Mud Family" (2015)
D: https://www.slippery-hill.com/recording/last-gold-dollar-0
Z:Transcribed by Andrew Kuntz
K:C
P:A
e2|agea- ageg-|agec- c3A|FGAc- dcAd-|dcAG- G2g2|
agea- agea-|agec- c4|Bd2B d2e2|d6e2|
agea- agea-|agec- c3E-|FGAd- dcAd-|dcAG- G2E-|
FGAc- c2d2|edeg- gag^d-|e=dcA cd3|c6||
P:A'
ga|gded- cdea-|age2c- c3E-|FGAd- dcAe|dc-BA G2 ga|
gded- cdea-|age2c- c4|Bd2B d2e2|d6 gg|
gdec- cdea-|agec- c3E-|FGAd- dcAe|dc-BA G3E-|
FGAc- c2d2|edeg- gag^d-|e=dcA cd3|c6||

